packages/foundations/assets/icons/functional/images/human/shower_women_12.svg

<svg width="12" height="12" viewBox="0 0 12 12" fill="none" xmlns="http://www.w3.org/2000/svg">
<g clip-path="url(#clip0_232_261)">
<path fill-rule="evenodd" clip-rule="evenodd" d="M5.10009 8.40032C5.6462 8.40032 6.06068 8.78788 6.24424 9.25298L6.58588 10.0702C6.65777 10.3937 6.45378 10.7142 6.13025 10.7861C5.80673 10.858 5.52683 10.5961 5.41431 10.3305L5.09022 9.60039H2.70009L2.38578 10.3309C2.24696 10.6363 1.99295 10.8581 1.66949 10.786C1.34602 10.7139 1.14227 10.3932 1.21441 10.0697L1.54656 9.26256C1.69149 8.85927 2.1219 8.40032 2.70009 8.40032H5.10009ZM3.91307 4.05035C4.82409 4.05035 5.55009 4.77632 5.55006 5.68734C5.55594 6.59808 4.82378 7.34185 3.91307 7.35032C2.99727 7.34398 2.25643 6.60314 2.25009 5.68734C2.2586 4.77665 3.00235 4.04452 3.91307 4.05035ZM8.98843 6.3405C9.04441 6.58255 8.89352 6.82418 8.65142 6.88C8.40932 6.93582 8.16774 6.78489 8.11176 6.54274C8.05578 6.30059 8.20667 6.05906 8.44877 6.00324C8.69086 5.94732 8.93245 6.09836 8.98843 6.3405ZM10.7389 5.92426C10.8639 6.13908 10.7912 6.41445 10.5766 6.53936C10.3618 6.66417 10.0864 6.59119 9.96134 6.37638C9.83626 6.16145 9.90886 5.88608 10.1236 5.76127C10.3383 5.63646 10.6139 5.70944 10.7389 5.92426ZM6.97609 5.7606C7.19101 5.88569 7.26398 6.16113 7.13907 6.37578C7.01417 6.59053 6.73881 6.66324 6.524 6.53815C6.30919 6.41306 6.23621 6.13761 6.36112 5.92286C6.48592 5.70822 6.76128 5.63551 6.97609 5.7606ZM8.98839 4.95526C9.04448 5.19741 8.89358 5.43894 8.65146 5.49476C8.40935 5.55068 8.16774 5.39964 8.11176 5.15749C8.05578 4.91545 8.20668 4.67391 8.44879 4.61799C8.69091 4.56217 8.93251 4.71321 8.98839 4.95526ZM7.42615 4.41154C7.64097 4.53663 7.71395 4.81206 7.58914 5.02681C7.46423 5.24155 7.18886 5.31416 6.97404 5.18907C6.75922 5.06409 6.68624 4.78855 6.81105 4.57391C6.93585 4.35916 7.21133 4.28645 7.42615 4.41154ZM10.2889 4.57423C10.414 4.78905 10.3412 5.06443 10.1266 5.18934C9.91185 5.31415 9.63641 5.24127 9.51132 5.02635C9.38623 4.81153 9.45894 4.53615 9.67359 4.41134C9.88834 4.28643 10.1638 4.35941 10.2889 4.57423ZM8.55009 1.20032C8.8578 1.20032 9.15001 1.45748 9.15001 1.80032V2.59472L9.39832 2.62521L9.9871 2.70666C10.315 2.75471 10.5418 3.05946 10.4938 3.38732C10.4457 3.71519 10.141 3.94203 9.81309 3.89398L9.05359 3.792C8.8838 3.76421 8.71532 3.75032 8.54813 3.75032C8.43667 3.75032 8.32522 3.75649 8.21377 3.76884L7.2871 3.89398C6.95923 3.94203 6.65449 3.71519 6.60644 3.38732C6.55838 3.05946 6.78522 2.75471 7.11309 2.70666L7.70187 2.62521L7.95001 2.59592L7.95009 1.80032C7.95009 1.46895 8.21872 1.20032 8.55009 1.20032Z" fill="#1A1C1F"/>
</g>
<defs>
<clipPath id="clip0_232_261">
<rect width="12" height="12" fill="white"/>
</clipPath>
</defs>
</svg>

<svg xmlns="http://www.w3.org/2000/svg" width="12" height="12" fill="none"><g clip-path="url(#a)"><path fill="#1A1C1F" fill-rule="evenodd" d="M5.1 8.4c.546 0 .96.388 1.144.853l.342.817a.6.6 0 0 1-.456.716c-.323.072-.603-.19-.716-.455L5.09 9.6H2.7l-.314.73c-.139.305-.393.527-.717.455a.6.6 0 0 1-.455-.716l.333-.807C1.69 8.859 2.122 8.4 2.7 8.4zM3.913 4.05c.911 0 1.637.726 1.637 1.637A1.65 1.65 0 0 1 3.913 7.35 1.675 1.675 0 0 1 2.25 5.687 1.65 1.65 0 0 1 3.913 4.05m5.075 2.29a.45.45 0 1 1-.876.203.45.45 0 0 1 .876-.203m1.75-.416a.45.45 0 1 1-.777.453.45.45 0 0 1 .778-.453m-3.762-.163a.45.45 0 1 1-.452.778.45.45 0 0 1 .452-.778m2.012-.806a.45.45 0 1 1-.875.203.45.45 0 0 1 .875-.203m-1.562-.543a.45.45 0 1 1-.453.778.45.45 0 0 1 .453-.778m2.863.162a.45.45 0 1 1-.777.453.45.45 0 0 1 .777-.453M8.55 1.2c.308 0 .6.257.6.6v.795l.248.03.59.082a.6.6 0 0 1-.175 1.187l-.76-.102a3.1 3.1 0 0 0-.84-.023l-.926.125a.6.6 0 0 1-.174-1.187l.589-.082.248-.03V1.8a.6.6 0 0 1 .6-.6" clip-rule="evenodd"/></g><defs><clipPath id="a"><path fill="#fff" d="M0 0h12v12H0z"/></clipPath></defs></svg>
